!!!COM: Corelli, Arcangelo
!!!OTL: 
!!!ONM: Opus 5, No. 11
!!!OMV: 4
!!!CDT: 1653/2/17/-1713/1/8/
!!!OCY: Italia
**kern	**kern
*clefC	*clefG
*k[f#c#g#]	*k[f#c#g#]
*A:	*A:
*M3/8	*M3/8
=1	=1
4.r	8ee
.	8b
.	[8ee
=2	=2
4.r	8ee]
.	8.ff#
.	32ee
.	32ff#
=3	=3
8E	8gg#
8BB	16ee
.	16ff#
[8E	8gg#
=4	=4
8E]	8gg#
8.F#	8.aa
32E	32gg#
32F#	32aa
=5	=5
8G#	8bb
16E	8gg#
16F#	.
8G#	8bb
=6	=6
4A	4ccc#
[8G#	8bb
=7	=7
8G#]	8ee
4F#	4aa
=8	=8
8E	4.gg#
8B	.
8e	.
=9	=9
8e	8r
16d#	8ff#
16c#	.
[8d#	8bb
=10	=10
8d#]	4.ee
8G#	.
8c#	.
=11	=11
8c#	8r
16B	8dd#
16A	.
[8B	8gg#
=12	=12
8B]	4.cc#
8E	.
8A	.
=13	=13
8A	8r
16G#	8b
16F#	.
8G#	8ee
=14	=14
8r	4.a
8F#	.
8D#	.
=15	=15
8E	8r
8BB	8g#
8E	8b
=16	=16
4AA	8c#
.	8a
8AA	8cc#
=17	=17
4BB	8d#
.	8b
8GG#	8e
=18	=18
8AA	8cc#
4BB	4f#
=19	=19
8e	4.e
8B	.
[8e	.
=20	=20
8e]	8ff#
4d#	8b
.	[8bb
=21	=21
4c#	8bb]
.	8ee
8d#	[8aa
=22	=22
8e	8aa]
8B	16gg#
.	16ff#
8E	[8gg#
=23	=23
8A	8gg#]
8A	8cc#
8A	[8ff#
=24	=24
8A	8ff#]
16G#	8b
16F#	.
[8G#	8ee
=25	=25
8G#]	8aa
8F#	8aa
8D#	8aa
=26	=26
8E	8aa
8B	16gg#
.	16ff#
8e	8gg#
=27	=27
8e	8ff#
16d#	8bb
16c#	.
[8d#	8b
=28	=28
8d#]	[4.ee
16c#	.
16B	.
8A#	.
=29	=29
8B	8ee]
8F#	8dd#
8B	8ff#
=30	=30
4E	8g#
.	8ee
8E	8gg#
=31	=31
4F#	8a#
.	8ff#
8d#	8b
=32	=32
8e	8gg#
8f#	4cc#
8F#	.
=33	=33
4.B	4.b
=34	=34
8r	4.bb
8BB	.
8BB	.
=35	=35
4C#	8ee
.	[4aa
8D#	.
=36	=36
8E	8aa]
8BB	16gg#
.	16ff#
8E	[8gg#
=37	=37
8AA	8gg#]
[4A	8cc#
.	8ff#
=38	=38
8A]	8b
8G#	[4ee
8c#	.
=39	=39
8F#	8ee]
[4B	8dd#
.	8b
=40	=40
8B]	8cc#
8A	8f#
8F#	[8ff#
=41	=41
8G#	8ff#]
8C#	8ee
[8c#	8cc#
=42	=42
8c#]	8dd#
8B	8g#
8G#	[8gg#
=43	=43
4A	8gg#]
.	8cc#
8F#	8aa
=44	=44
8G#	8b#
8F#	8gg#
8E	8cc#
=45	=45
8F#	16ff#
.	16ee
8G#	4dd#
8GG#	.
=46	=46
8c#	4.cc#
8G#	.
[8c#	.
=47	=47
8c#]	8dd#
4B	8g#
.	[8gg#
=48	=48
4.A	8gg#]
.	8cc#
.	8ff#
=49	=49
8r	8b
8G#	[4ee
8c#	.
=50	=50
8F#	8ee]
8B	16dd#
.	16cc#
8BB	8dd#
=51	=51
4E	8r
.	8g#
8e	8cc#
=52	=52
8d#	8f#
8g#	8b
8G#	8B
=53	=53
4c#	8r
.	8e
8c#	8a
=54	=54
8B	8d#
8e	8g#
8E	8G#
=55	=55
4A	8r
.	8c#
8A	8f#
=56	=56
4G#	8B
.	8e
8G#	8b
=57	=57
8A	8cc#
8B	4f#
8BB	.
=58	=58
4E	8e
.	8g#
8E	8cc#
=59	=59
8D#	8f#
8G#	8b
8GG#	8B
=60	=60
4C#	8r
.	8e
8C#	8a
=61	=61
8BB	8d#
8E	8g#
8EE	8G#
=62	=62
4AA	8r
.	8c#
8AA	8f#
=63	=63
4GG#	8B
.	8e
8GG#	8b
=64	=64
8AA	8cc#
4BB	4f#
=65	=65
4E	4e
8GG#	8b
=66	=66
8AA	8cc#
4BB	4f#
=67	=67
4.EE	4.e
==	==
*-	*-
!!!RWG: This file only contains pitch and duration data.
!!!RWG: Transposing instruments are not transposed.
!!!RWG: Durations of rests and tied notes may be interpreted.
!!!RWG: Key is interpreted using the Humdrum key tool.
!!!SCA: 
!!!YOR: 
!!!AGN: violin
!!!AFT: stage1
!!!ENC: F. Bennion
!!!END: 1997/04/15
!!!AST: baroque
!!!YEC: Copyright 1994, Center for Computer Assisted Research in the Humanities
!!!YEM: Rights to all derivative electronic formats reserved.
!!!YEM: Refer to licensing agreement for further details.
!!!YEN: United States of America
!!!EED: W.B. Hewlett
!!!KEY: 3569194388
!!!EMD: Converted from MuseData to Humdrum Aug 9, 1999, by Bret Aarden using muse2kern.
!!!VTS: 3763615629
